svgs/light/square-j.svg

<svg xmlns="http://www.w3.org/2000/svg" viewBox="0 0 448 512"><!--! Font Awesome Pro 6.6.0 by @fontawesome - https://fontawesome.com License - https://fontawesome.com/license (Commercial License) Copyright 2024 Fonticons, Inc. --><path d="M64 64C46.3 64 32 78.3 32 96l0 320c0 17.7 14.3 32 32 32l320 0c17.7 0 32-14.3 32-32l0-320c0-17.7-14.3-32-32-32L64 64zM0 96C0 60.7 28.7 32 64 32l320 0c35.3 0 64 28.7 64 64l0 320c0 35.3-28.7 64-64 64L64 480c-35.3 0-64-28.7-64-64L0 96zm304 48l0 144c0 53-43 96-96 96s-96-43-96-96l0-16c0-8.8 7.2-16 16-16s16 7.2 16 16l0 16c0 35.3 28.7 64 64 64s64-28.7 64-64l0-144c0-8.8 7.2-16 16-16s16 7.2 16 16z"/></svg>

<svg xmlns="http://www.w3.org/2000/svg" viewBox="0 0 448 512"><!--! Font Awesome Pro 6.4.2 by @fontawesome - https://fontawesome.com License - https://fontawesome.com/license (Commercial License) Copyright 2023 Fonticons, Inc. --><path d="M64 64C46.3 64 32 78.3 32 96V416c0 17.7 14.3 32 32 32H384c17.7 0 32-14.3 32-32V96c0-17.7-14.3-32-32-32H64zM0 96C0 60.7 28.7 32 64 32H384c35.3 0 64 28.7 64 64V416c0 35.3-28.7 64-64 64H64c-35.3 0-64-28.7-64-64V96zm304 48V288c0 53-43 96-96 96s-96-43-96-96V272c0-8.8 7.2-16 16-16s16 7.2 16 16v16c0 35.3 28.7 64 64 64s64-28.7 64-64V144c0-8.8 7.2-16 16-16s16 7.2 16 16z"/></svg>
